Otagle3/Assets/ikonySvG/Akapity_K.svg

<svg id="SVGRoot" width="205" height="203" version="1.1" viewBox="0 0 205 203" xmlns="http://www.w3.org/2000/svg">
 <g transform="translate(0,2)">
  <g transform="matrix(3.7795 0 0 3.7795 10.171 -6.7758)">
   <g transform="translate(-1.0884 -121.69)">
    <g transform="translate(1.6608 -59.209)">
     <g transform="translate(-.6443 -59.335)">
      <rect x="-1.7025" y="241.91" width="52.917" height="52.917" fill="#0082b4" stroke="#000" stroke-linecap="round" stroke-width=".5" style="paint-order:fill markers stroke"/>
      <text transform="scale(1.0125 .98768)" x="24.481644" y="294.60306" font-family="sans-serif" font-size="4.9389px" letter-spacing="0px" stroke-width=".26132" text-align="center" text-anchor="middle" word-spacing="0px" style="line-height:1.04999995" xml:space="preserve"><tspan x="24.481644" y="294.60306" fill="#ffffff" font-family="sans-serif" font-size="4.9389px" stroke-width=".26132" text-align="center" text-anchor="middle">AKAPITY</tspan></text>
      <g transform="matrix(1.3029 0 0 1.3029 9.1212 247.63)" fill="#fff">
       <path d="m19 0h-8c-3.584 0-6.5 2.916-6.5 6.5s2.916 6.5 6.5 6.5h1.5v10h-1.5c-.276 0-.5.224-.5.5s.224.5.5.5h7c.276 0 .5-.224.5-.5s-.224-.5-.5-.5h-1.5v-22h2.5c.276 0 .5-.224.5-.5s-.224-.5-.5-.5zm-3.5 23h-2v-22h2z" fill="#fff"/>
      </g>
     </g>
    </g>
   </g>
  </g>
 </g>
</svg>

<?xml version="1.0" encoding="UTF-8" standalone="no"?>
<svg
   xmlns:dc="http://purl.org/dc/elements/1.1/"
   xmlns:cc="http://creativecommons.org/ns#"
   xmlns:rdf="http://www.w3.org/1999/02/22-rdf-syntax-ns#"
   xmlns:svg="http://www.w3.org/2000/svg"
   xmlns="http://www.w3.org/2000/svg"
   id="svg47"
   version="1.1"
   viewBox="0 0 52.758294 52.758296"
   height="199.40143"
   width="199.40143">
  <defs
     id="defs42">
    <pattern
       id="EMFhbasepattern"
       patternUnits="userSpaceOnUse"
       width="6"
       height="6"
       x="0"
       y="0" />
  </defs>
  <metadata
     id="metadata45">
    <rdf:RDF>
      <cc:Work
         rdf:about="">
        <dc:format>image/svg+xml</dc:format>
        <dc:type
           rdf:resource="http://purl.org/dc/dcmitype/StillImage" />
        <dc:title></dc:title>
      </cc:Work>
    </rdf:RDF>
  </metadata>
  <g
     id="g8556"
     transform="translate(49.836509,-375.23204)">
    <g
       id="g5305">
      <text
         id="text898-7-3-6-8-3-3-0-66-7-8-8-0-8-3-4-2-6-22-3-3-4-7-0-2-6-2"
         y="425.61624"
         x="-23.21401"
         style="font-size:6.3499999px;line-height:0.94999999;font-family:voestalpine;-inkscape-font-specification:voestalpine;text-align:center;letter-spacing:0px;word-spacing:0px;text-anchor:middle;fill:#ffffff;fill-opacity:1;stroke-width:0.26458299"
         xml:space="preserve"><tspan
           style="font-size:6.3499999px;text-align:center;text-anchor:middle;fill:#ffffff;fill-opacity:1;stroke-width:0.26458299"
           y="425.61624"
           x="-23.21401"
           id="tspan3280-8-2-3-8">Pokaż nagłówek</tspan></text>
      <g
         style="fill:#ffffff;fill-opacity:1;stroke:#ffffff;stroke-opacity:1"
         id="g3425-7-6"
         transform="matrix(0.43424404,0,0,-0.43424404,-45.178706,415.78283)">
        <rect
           id="rect3393-7-1"
           height="2"
           width="13.89"
           y="68.667"
           x="17.409"
           style="fill:#ffffff;fill-opacity:1;stroke:#ffffff;stroke-opacity:1" />
        <path
           id="path3395-1-7"
           d="M 85.235,77.833 H 14.106 c -2.998,0 -5.436,-2.438 -5.436,-5.436 V 23.27 c 0,-2.998 2.438,-5.436 5.436,-5.436 h 71.129 c 2.998,0 5.436,2.438 5.436,5.436 v 49.128 c -0.001,2.998 -2.438,5.435 -5.436,5.435 z m -71.129,-58 c -1.895,0 -3.436,1.541 -3.436,3.437 v 49.128 c 0,1.895 1.541,3.436 3.436,3.436 h 71.129 c 1.895,0 3.436,-1.541 3.436,-3.436 V 23.27 c 0,-1.896 -1.541,-3.437 -3.436,-3.437 z"
           style="fill:#ffffff;fill-opacity:1;stroke:#ffffff;stroke-opacity:1" />
        <rect
           id="rect3397-6-6"
           height="2"
           width="13.89"
           y="68.667"
           x="42.648998"
           style="fill:#ffffff;fill-opacity:1;stroke:#ffffff;stroke-opacity:1" />
        <rect
           id="rect3399-8-5"
           height="2"
           width="13.89"
           y="68.667"
           x="67.704002"
           style="fill:#ffffff;fill-opacity:1;stroke:#ffffff;stroke-opacity:1" />
        <rect
           id="rect3401-4-7"
           height="2"
           width="13.89"
           y="62.667"
           x="17.500999"
           style="fill:#ffffff;fill-opacity:1;stroke:#ffffff;stroke-opacity:1" />
        <rect
           id="rect3403-9-4"
           height="2"
           width="13.89"
           y="62.667"
           x="42.742001"
           style="fill:#ffffff;fill-opacity:1;stroke:#ffffff;stroke-opacity:1" />
        <rect
           id="rect3405-2-5"
           height="2"
           width="13.89"
           y="62.667"
           x="67.795998"
           style="fill:#ffffff;fill-opacity:1;stroke:#ffffff;stroke-opacity:1" />
        <rect
           id="rect3407-0-9"
           height="2"
           width="64.139"
           y="56.667"
           x="17.500999"
           style="fill:#ffffff;fill-opacity:1;stroke:#ffffff;stroke-opacity:1" />
      </g>
      <g
         id="g364"
         transform="translate(-47.963926,133.26106)">
        <rect
           y="241.90709"
           x="-1.7024951"
           height="52.916668"
           width="52.916668"
           id="rect833-0-59-1-42"
           style="fill:#0082b4;fill-opacity:1;stroke:#000000;stroke-width:0.49999899;stroke-linecap:round;stroke-miterlimit:4;stroke-dasharray:none;stroke-opacity:1;paint-order:fill markers stroke" />
        <text
           transform="scale(1.0124726,0.98768104)"
           id="text858-5-83-73-7-0-7-0-7-9-81-0-2-2-6-2-70"
           y="296.19086"
           x="24.481644"
           style="font-size:6.27179003px;line-height:1.04999995;font-family:voestalpine;-inkscape-font-specification:voestalpine;text-align:center;letter-spacing:0px;word-spacing:0px;text-anchor:middle;stroke-width:0.261323"
           xml:space="preserve"><tspan
             id="tspan1140-9-2"
             style="font-size:6.27179003px;text-align:center;text-anchor:middle;fill:#ffffff;fill-opacity:1;stroke-width:0.261323"
             y="296.19086"
             x="24.481644">AKAPITY</tspan></text>
        <g
           transform="matrix(1.3028827,0,0,1.3028827,9.1212465,247.6259)"
           id="g1448"
           style="fill:#ffffff;fill-opacity:1">
          <path
             style="fill:#ffffff;fill-opacity:1"
             d="M 19,0 H 11 C 7.416,0 4.5,2.916 4.5,6.5 4.5,10.084 7.416,13 11,13 h 1.5 V 23 H 11 c -0.276,0 -0.5,0.224 -0.5,0.5 0,0.276 0.224,0.5 0.5,0.5 h 7 c 0.276,0 0.5,-0.224 0.5,-0.5 C 18.5,23.224 18.276,23 18,23 H 16.5 V 1 H 19 C 19.276,1 19.5,0.776 19.5,0.5 19.5,0.224 19.276,0 19,0 Z m -3.5,23 h -2 V 1 h 2 z"
             id="path1437" />
        </g>
      </g>
    </g>
  </g>
</svg>
